X: 67
T: 5th Horseman Of The Apocalypse
R: reel
M: 4/4
K: Dminor
|:bfeb febf|ebfe afea|feaf eafe|^gfeg fegf|
e^gfe d^cde|f^gab feaf|e^gfe ^cefd|1 d4 g2a2:|2 d4 d2^c2||
|:d^cAG FDFc|[D2d2][D2d2] d^cAG|FDF^c [D2d2][D2d2]|dAGc GFBF|EGD^C A,B,CD|
EFED D4|1 A,B,^CD EFED|D6 ^c2:|2 d^cAG FDFc|[D2d2][D2d2] g2a2||

